X:119
T:Gatehouse Maid
Z: id:dc-reel-110
M:C
L:1/8
K:A Dorian
A2Bd edBA|GFGA GED2|A2Bd edBd|egdB BAA2:|!
a2ea agef|g2dg Bgdg|a2ea agab|gedB BAA2|!
agab agef|g2af gedB|dega bgaf|gedB BAA2|]!

